X: 19597
T: Jamie's
R: reel
M: 4/4
K: Gmajor
fe|:dBAB GBEB|BABd efge|dBgB cABG|ABAG A2ge|
dBAB GBEB|BABd efge|dBgB AcBA|1 G2GF G2ge:|2 G2GF G2B2||
|:efgf egBg|efge bege|egfd ADFD|defd adfd|
efgf egBg|faaf afed|1 efge fgaf|g2gf g2gf:|2 efgB AcBA|G2GF G2||

